X: 11102
T: Dugald Gillespie
R: jig
M: 6/8
K: Dmajor
|:A|d>dd e>fg|a3 f2e|d2f e>dB|A3 -A2A|
[1d>dd e>fg|a3 f2e|d2f g>df|e3 -e2:|
[2B>dd c>ee|d3 g2f|e>AA A>fe|d6||
|:f3 a3|f>ge d3|f>ed d>cB|
[1A6|f3 a3|f>ge d3|a>fd A>gf|e6:|
[2A3 -A2A|B>dd c>ee|d3 g2f|e>AA A>fe|d3 -d>fe||
|:d3 A3|B>GB A3|f>ed d>cB|
[1A3 -A>fe|d3 A3|B>GB A3|a>fd A>gf|e3 -e>fe:|
[2A3 -A2A|B>dd c>ee|d3 g2f|e>AA A>fe|d6||
a3 f2a|f>ge d3|f>ed d>cB|A6|
a3 f2a|f>ge d3|a>fd A>gf|e3 -e>fe|
d3 d>cd|e3 A3|f2e d>ef|g3 d>cB|
A>dd c>ee|d3 g2f|e>AA A>fe|d3 -d2||

